X: 8907
T: Curlews In The Bog
R: reel
M: 4/4
K: Dmajor
|:A2 FE DEFG|ADFA d2 cd|eA A/A/A eAfA|eAAF G3 B|
AFFE DEFG|ADFA d2 cd|eA A/A/A efge|1 cAGE D3 B:|2 cAGE D2 FE||
|:DFAd f2 ef|gfed cAAF|G3 F EFGB|AFFE DEFG|
AFAd f2 ef|gfed cAAF|G3 A B2 ed|1 cAGE D2 FE:|2 cAGE D2 FG||

